assets/icons/logo.svg

<?xml version="1.0" encoding="UTF-8"?>
<svg width="98px" height="68px" viewBox="0 0 98 68" version="1.1" xmlns="http://www.w3.org/2000/svg" xmlns:xlink="http://www.w3.org/1999/xlink">
    <!-- Generator: Sketch 39.1 (31720) - http://www.bohemiancoding.com/sketch -->
    <title>Combined Shape</title>
    <desc>Created with Sketch.</desc>
    <defs>
        <path d="M2,4.03781878 L9.91939502,4.03781878 L9.91939502,20.0140983 L20.1454021,20.0140983 L20.1454021,27.7135101 L9.91939502,27.7135101 L9.91939502,43.6897897 L2,43.6897897 L2,4.03781878 Z M39.008444,35.0446021 L39.008444,4.09281458 L31.089049,4.09281458 L31.089049,43.6897897 L39.008444,43.6897897 L39.008444,43.2307869 C39.4950865,41.5576679 40.4965236,40.7211202 42.0127806,40.7211202 C42.8247489,40.7211202 43.4983033,40.9794698 44.0334642,41.4961769 C44.5686251,42.012884 44.8362015,42.6956652 44.8362015,43.5445411 C44.8362015,44.6517705 44.4209967,45.7405298 43.5905747,46.8108516 C42.7601526,47.8811734 41.2285082,49.3020965 38.9955955,51.0736636 C36.7626828,52.8452306 34.9173281,54.8566673 33.4594761,57.1080338 C32.001624,59.3594003 31.2727089,61.7030007 31.2727089,64.1389055 L52.9742971,64.1389055 L52.9742971,58.1045353 L41.0162791,58.1045353 C41.4591709,57.292567 42.7324656,56.0561794 44.8362015,54.3953352 C47.7888133,52.0701534 49.7817964,50.1786649 50.8152105,48.7208128 C51.8486247,47.2629607 52.365324,45.5744612 52.365324,43.6552635 C52.365324,40.9610052 51.470327,38.7927134 49.6803061,37.1503231 C47.8902851,35.5079328 45.4820973,34.68675 42.4556702,34.68675 C41.2026438,34.68675 40.0535688,34.8060338 39.008444,35.0446021 Z M72.575456,1 L72.892381,1 C79.9070214,1 85.8968429,3.87342407 90.8620252,9.62035842 C94.0735473,13.9305592 95.6792843,18.6210014 95.6792843,23.6918258 L95.6792843,24.0087508 C95.6792843,31.0233912 92.7424759,36.9815206 86.8687709,41.8833175 C82.600827,45.0525828 77.9209488,46.6371916 72.828996,46.6371916 L72.512071,46.6371916 C65.5396874,46.6371916 59.5709941,43.7848957 54.6058118,38.0802182 C52.8732801,35.6504482 51.6584133,33.4214317 50.961175,31.3931019 C50.137166,28.8576897 49.7251677,26.3751358 49.7251677,23.9453658 L49.7251677,23.6284408 C49.7251677,16.740571 52.5668996,10.845826 58.2504486,5.94402909 C62.0958238,3.19733253 65.6030915,1.6549799 68.7723567,1.31692494 C69.7442647,1.10564059 71.0119518,1 72.575456,1 Z M58.852606,23.7552108 C58.852606,27.7273566 60.4055227,31.2134961 63.5114027,34.2137339 C66.2792277,36.5801186 69.1843439,37.7632933 72.2268386,37.7632933 L73.1142284,37.7632933 C75.5651269,37.7632933 78.0582448,36.9287326 80.593657,35.2595862 C83.213583,33.3368986 84.9883449,30.8860369 85.9179961,27.9069276 C86.2137942,27.1251755 86.4250753,25.78354 86.551846,23.8819808 C86.551846,19.9943487 85.0411855,16.5610295 82.0198193,13.5819202 C79.188609,11.0676364 76.0827756,9.81051338 72.702226,9.81051338 C68.7512086,9.81051338 65.243941,11.4585066 62.1803179,14.7545425 C60.8914834,16.4448173 60.0780508,17.8815293 59.7399959,19.0647217 C59.1483997,20.7127396 58.852606,22.2762204 58.852606,23.7552108 Z" id="path-1"></path>
        <filter x="-50%" y="-50%" width="200%" height="200%" filterUnits="objectBoundingBox" id="filter-2">
            <feOffset dx="0" dy="1" in="SourceAlpha" result="shadowOffsetOuter1"></feOffset>
            <feGaussianBlur stdDeviation="1" in="shadowOffsetOuter1" result="shadowBlurOuter1"></feGaussianBlur>
            <feColorMatrix values="0 0 0 0 0   0 0 0 0 0   0 0 0 0 0  0 0 0 0.236384737 0" type="matrix" in="shadowBlurOuter1"></feColorMatrix>
        </filter>
    </defs>
    <g id="logo" stroke="none" stroke-width="1" fill="none" fill-rule="evenodd">
        <g id="Combined-Shape">
            <use fill="black" fill-opacity="1" filter="url(#filter-2)" xlink:href="#path-1"></use>
            <use fill="#FFFFFF" fill-rule="evenodd" xlink:href="#path-1"></use>
        </g>
    </g>
</svg>

<svg width="750" height="150" xmlns="http://www.w3.org/2000/svg">
 <!-- Generator: Sketch 39.1 (31720) - http://www.bohemiancoding.com/sketch -->
 <title>Combined Shape</title>
 <desc>Created with Sketch.</desc>
 <defs>
  <path id="path-1" d="m2,4.037819l7.919395,0l0,15.976279l10.226007,0l0,7.699412l-10.226007,0l0,15.97628l-7.919395,0l0,-39.651971zm37.008444,31.006783l0,-30.951787l-7.919395,0l0,39.596975l7.919395,0l0,-0.459003c0.486642,-1.673119 1.48808,-2.509667 3.004337,-2.509667c0.811968,0 1.485522,0.25835 2.020683,0.775057c0.535161,0.516707 0.802738,1.199488 0.802738,2.048364c0,1.107229 -0.415205,2.195989 -1.245627,3.266311c-0.830422,1.070321 -2.362067,2.491244 -4.594979,4.262812c-2.232913,1.771567 -4.078268,3.783003 -5.53612,6.03437c-1.457852,2.251366 -2.186767,4.594967 -2.186767,7.030872l21.701588,0l0,-6.034371l-11.958018,0c0.442892,-0.811968 1.716187,-2.048356 3.819923,-3.7092c2.952611,-2.325182 4.945594,-4.21667 5.979008,-5.674522c1.033415,-1.457852 1.550114,-3.146352 1.550114,-5.06555c0,-2.694258 -0.894997,-4.86255 -2.685018,-6.50494c-1.790021,-1.64239 -4.198209,-2.463573 -7.224636,-2.463573c-1.253026,0 -2.402101,0.119284 -3.447226,0.357852zm33.567012,-34.044602l0.316925,0c7.01464,0 13.004462,2.873424 17.969644,8.620358c3.211522,4.310201 4.817259,9.000643 4.817259,14.071468l0,0.316925c0,7.01464 -2.936808,12.97277 -8.810513,17.874566c-4.267944,3.169266 -8.947822,4.753875 -14.039775,4.753875l-0.316925,0c-6.972384,0 -12.941077,-2.852296 -17.906259,-8.556974c-1.732532,-2.42977 -2.947399,-4.658786 -3.644637,-6.687116c-0.824009,-2.535412 -1.236007,-5.017966 -1.236007,-7.447736l0,-0.316925c0,-6.88787 2.841732,-12.782615 8.525281,-17.684412c3.845375,-2.746696 7.352643,-4.289049 10.521908,-4.627104c0.971908,-0.211284 2.239595,-0.316925 3.803099,-0.316925zm-13.72285,22.755211c0,3.972146 1.552917,7.458285 4.658797,10.458523c2.767825,2.366385 5.672941,3.549559 8.715436,3.549559l0.887389,0c2.450899,0 4.944017,-0.83456 7.479429,-2.503707c2.619926,-1.922687 4.394688,-4.373549 5.324339,-7.352658c0.295798,-0.781752 0.507079,-2.123388 0.63385,-4.024947c0,-3.887632 -1.510661,-7.320951 -4.532027,-10.300061c-2.83121,-2.514284 -5.937043,-3.771407 -9.317593,-3.771407c-3.951017,0 -7.458285,1.647994 -10.521908,4.944029c-1.288835,1.690275 -2.102267,3.126987 -2.440322,4.31018c-0.591596,1.648018 -0.88739,3.211498 -0.88739,4.690489z"/>
 </defs>
 <g>
  <title>background</title>
  <rect fill="none" id="canvas_background" height="152" width="752" y="-1" x="-1"/>
 </g>
 <g>
  <title>Layer 1</title>
  <text style="cursor: move;" opacity="0.7" stroke="#000" transform="matrix(8.866666793823242,0,0,8.866666793823242,-519.200008392334,-550.666675567627) " xml:space="preserve" text-anchor="start" font-family="'Trebuchet MS', Gadget, sans-serif" font-size="14" id="svg_4" y="74.729324" x="60.834586" stroke-width="0" fill="#ffffff">o(*≧▽≦)ツ</text>
 </g>
</svg>
